X: 26265
T: Mehdi
R: jig
M: 6/8
K: Bminor
|:bff bff|gag gfe|bff bff|gag g2f|
bff bff|gag gfe|fff ece|1 dcB efa:|2 dcB BBA||
|:FBB fBf|ece dcB|FBB fBf|efd c2B|
FBB fBf|ece def|afb fed|1 cBA B2A:|2 cBA efa||

